src/assets/icons/PostgreSQL.svg

<svg width="49" height="48" viewBox="0 0 49 48" fill="none" xmlns="http://www.w3.org/2000/svg">
<g clip-path="url(#clip0_1196_1440)">
<path d="M39.5352 0H10.4648C5.23753 0 1 4.23753 1 9.46479V38.5352C1 43.7625 5.23753 48 10.4648 48H39.5352C44.7625 48 49 43.7625 49 38.5352V9.46479C49 4.23753 44.7625 0 39.5352 0Z" fill="var(--text)"/>
<path d="M32.2033 33.3162C32.4228 31.489 32.3571 31.2207 33.7181 31.5169L34.0635 31.5471C35.1101 31.5947 36.4792 31.3788 37.2836 31.0051C39.0152 30.2015 40.0416 28.8604 38.3347 29.2126C34.4403 30.0161 34.1726 28.6974 34.1726 28.6974C38.2849 22.5959 40.0039 14.8504 38.5198 12.9544C34.4727 7.78319 27.4673 10.2285 27.3501 10.2917L27.3126 10.2987C26.5432 10.139 25.682 10.0437 24.7146 10.028C22.9522 9.9989 21.615 10.49 20.6006 11.2592C20.6006 11.2592 8.10314 6.11036 8.68462 17.7343C8.80824 20.2071 12.2289 36.4451 16.309 31.5404C17.8003 29.747 19.2413 28.2306 19.2413 28.2306C19.9567 28.7058 20.8137 28.9485 21.7121 28.8613L21.7817 28.802C21.7599 29.0246 21.7694 29.2425 21.8094 29.5004C20.7586 30.6748 21.0674 30.8809 18.9661 31.3133C16.8399 31.7513 18.089 32.5314 18.9043 32.7353C19.893 32.9825 22.18 33.3327 23.7256 31.1696L23.664 31.4162C24.0763 31.7463 24.0486 33.7872 24.1068 35.2452C24.1652 36.7035 24.2629 38.0642 24.5602 38.8667C24.8575 39.6688 25.2082 41.7352 27.9699 41.1433C30.2779 40.65 32.0425 39.9381 32.2033 33.3162Z" fill="var(--background)"/>
<path d="M27.0707 42.5863C25.8493 42.5863 25.0538 42.1139 24.5708 41.6577C23.8416 40.9697 23.5524 40.0833 23.3796 39.5539L23.3049 39.3329C22.957 38.3937 22.8389 37.0414 22.769 35.3C22.7584 35.0385 22.7511 34.7692 22.743 34.4836C22.7371 34.2747 22.7299 34.0126 22.7192 33.7385C22.2849 33.9461 21.8206 34.0937 21.3314 34.1771C20.4702 34.3242 19.5445 34.2767 18.5792 34.0353C17.8982 33.865 17.1906 33.512 16.7873 32.9669C15.6117 33.9964 14.4904 33.8568 13.8796 33.6529C12.8019 33.2935 11.8376 32.2836 10.9311 30.566C10.2853 29.3424 9.66074 27.7481 9.07451 25.8272C8.05363 22.4821 7.40503 18.9588 7.34741 17.802C7.16617 14.1814 8.1409 11.592 10.2439 10.1066C13.5613 7.76335 18.5876 9.14138 20.4202 9.76705C21.6514 9.02503 23.0999 8.66395 24.7366 8.68996C25.6157 8.70423 26.4528 8.78142 27.2304 8.92015C28.0415 8.66507 29.6435 8.29895 31.4775 8.32189C34.8564 8.36216 37.6564 9.67895 39.5743 12.1299C40.9431 13.8785 40.2662 17.5506 39.7412 19.5839C39.0023 22.444 37.7076 25.486 36.1173 28.1341C36.5491 28.1372 37.1748 28.0854 38.0642 27.9017C39.819 27.5395 40.3322 28.4803 40.4715 28.9016C41.0295 30.5914 38.604 31.8685 37.8474 32.2198C36.878 32.6698 35.2975 32.9439 34.0031 32.8846L33.9466 32.881L33.6065 32.8511L33.5729 33.1347L33.5405 33.4119C33.4535 36.7679 32.9741 38.8932 31.9876 40.2976C30.9536 41.7699 29.5166 42.1824 28.2507 42.4537C27.8188 42.546 27.4264 42.5863 27.0707 42.5863ZM24.5003 30.3719C25.2888 31.0029 25.3578 32.1902 25.4196 34.409C25.4275 34.6858 25.4348 34.9479 25.4445 35.1926C25.4742 35.9338 25.5438 37.6693 25.8157 38.4027C25.854 38.5064 25.8884 38.6116 25.9248 38.7232C26.2277 39.6506 26.3795 40.1158 27.6893 39.8358C28.7888 39.6 29.3541 39.3886 29.7965 38.7587C30.4395 37.843 30.7992 36.001 30.8652 33.2838L32.203 33.3162L30.8745 33.1568L30.9136 32.8251C31.0409 31.7315 31.1326 30.9416 31.8635 30.4192C32.45 30.0002 33.1181 30.0407 33.6504 30.1367C33.0656 29.6948 32.9039 29.1765 32.8608 28.9639L32.7492 28.4143L33.0628 27.9492C34.8687 25.2698 36.3578 21.9767 37.1488 18.9141C37.9616 15.7673 37.7137 14.0961 37.4659 13.7801C34.1854 9.58833 28.4968 11.3191 27.9027 11.5154L27.8023 11.5697L27.2989 11.6634L27.041 11.6099C26.33 11.4623 25.5402 11.3806 24.6936 11.3669C23.3634 11.3445 22.2902 11.6589 21.4103 12.3265L20.7997 12.7894L20.0913 12.4977C18.5776 11.8787 14.1316 10.6344 11.7856 12.296C10.4833 13.2184 9.89008 15.0258 10.0221 17.668C10.0657 18.5404 10.6584 21.8427 11.6362 25.0455C12.9874 29.4716 14.2152 30.9419 14.7279 31.1128C14.8174 31.143 15.0495 30.9626 15.2806 30.6851C16.7825 28.8786 18.2115 27.3725 18.2716 27.3093L19.0463 26.494L19.983 27.1163C20.3606 27.3672 20.7771 27.5095 21.2047 27.5364L23.4386 25.6311L23.115 28.9337C23.1077 29.0078 23.1041 29.1088 23.1332 29.2962L23.2305 29.9221L22.8082 30.3943L22.7595 30.4491L23.9868 31.0155L24.5003 30.3719Z" fill="var(--background)"/>
<path d="M38.3347 29.2126C34.44 30.0161 34.1723 28.6974 34.1723 28.6974C38.2846 22.5956 40.0036 14.8499 38.5201 12.9544C34.473 7.78349 27.467 10.2288 27.3501 10.2923L27.3123 10.299C26.5429 10.1393 25.6817 10.0442 24.7137 10.0286C22.9514 9.99976 21.6147 10.4906 20.6003 11.2598C20.6003 11.2598 8.10258 6.11121 8.68378 17.7349C8.8074 20.2079 12.228 36.4459 16.3082 31.5413C17.7995 29.7479 19.2402 28.2314 19.2402 28.2314C19.9559 28.7066 20.8126 28.9494 21.7107 28.8621L21.7806 28.8028C21.7588 29.0255 21.7688 29.2433 21.8086 29.5012C20.7575 30.6756 21.0663 30.8818 18.9649 31.3142C16.8387 31.7522 18.0878 32.5322 18.9034 32.7361C19.8918 32.9834 22.1791 33.3335 23.7244 31.1704L23.6626 31.4171C24.0746 31.7471 24.3638 33.5629 24.3154 35.2089C24.2668 36.8549 24.2343 37.9851 24.559 38.8678C24.8835 39.7505 25.2068 41.7363 27.969 41.1445C30.277 40.65 31.473 39.3682 31.6397 37.2302C31.7577 35.7101 32.0248 35.935 32.0419 34.5759L32.2564 33.9326C32.5037 31.8722 32.2956 31.2076 33.7178 31.5167L34.0632 31.5469C35.1098 31.5944 36.4795 31.3785 37.2836 31.0048C39.0149 30.2018 40.0416 28.8604 38.3347 29.2126Z" fill="var(--background)"/>
<path d="M27.2102 41.7615C24.9078 41.7615 24.1784 39.9382 23.8799 39.1925C23.4431 38.0998 23.3488 33.8591 23.4461 30.3814C23.4529 30.135 23.657 29.9403 23.9048 29.9479C24.1512 29.9546 24.3454 30.1599 24.3384 30.4063C24.2262 34.4174 24.3853 38.0522 24.7087 38.8611C25.2132 40.1222 25.9785 41.2253 28.1419 40.7619C30.1957 40.3214 30.9648 39.5427 31.3074 37.5566C31.5703 36.0326 32.0903 31.6968 32.1543 30.8412C32.1728 30.5957 32.3859 30.4108 32.6326 30.4295C32.8782 30.448 33.0625 30.6622 33.0443 30.9078C32.9775 31.7986 32.46 36.126 32.187 37.7085C31.7826 40.0542 30.7369 41.1182 28.329 41.6345C27.9198 41.722 27.5481 41.7612 27.2102 41.7615ZM14.7259 32.8558C14.5064 32.8558 14.307 32.8153 14.1341 32.7579C12.6386 32.259 11.2141 29.8234 9.90015 25.5181C8.89997 22.241 8.26619 18.8204 8.21054 17.7086C8.0458 14.4127 8.89438 12.0809 10.7333 10.7784C14.3713 8.20079 20.4912 10.6554 20.7499 10.7611C20.9779 10.8542 21.0875 11.1149 20.9941 11.3431C20.901 11.5711 20.6403 11.6804 20.4123 11.5876C20.3533 11.5635 14.4848 9.21243 11.2474 11.5079C9.675 12.6227 8.95312 14.6941 9.10163 17.6641C9.14834 18.6008 9.74045 21.9392 10.7535 25.2575C11.9265 29.101 13.2615 31.5262 14.4163 31.9113C14.5976 31.9717 15.1491 32.1555 15.9376 31.2073C17.4213 29.4223 18.7843 27.9976 18.798 27.9836C18.9686 27.8057 19.2511 27.7999 19.4289 27.9705C19.6068 28.1411 19.613 28.4236 19.4424 28.6012C19.4289 28.6152 18.0867 30.0184 16.6239 31.7782C15.9311 32.6114 15.2671 32.8558 14.7259 32.8558ZM34.1446 29.0954C34.0587 29.0954 33.972 29.0708 33.8954 29.0193C33.6912 28.8814 33.637 28.6043 33.7749 28.3998C37.9319 22.2312 39.3911 14.7777 38.1414 13.1807C36.5684 11.1708 34.3474 10.1212 31.5396 10.0605C29.4606 10.0157 27.8082 10.5466 27.538 10.6391L27.4701 10.6668C27.1985 10.7521 26.9901 10.6033 26.9115 10.4294C26.8184 10.2235 26.8947 9.98019 27.088 9.863C27.1009 9.85544 27.1417 9.8381 27.208 9.81377C27.667 9.64568 29.3446 9.14223 31.4224 9.16601C34.5292 9.19901 37.0956 10.3969 38.8437 12.6308C39.6707 13.6878 39.6727 16.1228 38.849 19.3118C38.0094 22.5632 36.4294 26.0574 34.5146 28.8988C34.4291 29.0266 34.2881 29.0954 34.1446 29.0954ZM34.3572 31.951C33.6473 31.951 33.011 31.8509 32.6301 31.6227C32.2385 31.388 32.1638 31.0692 32.154 30.9C32.0472 29.0232 33.0826 28.6966 33.6107 28.5475C33.5371 28.4362 33.4325 28.3053 33.3243 28.1702C33.0163 27.7853 32.5946 27.2584 32.2696 26.4702C32.2187 26.3471 32.0592 26.061 31.8746 25.7296C30.8736 23.9345 28.7908 20.1993 30.1288 18.2865C30.748 17.4012 31.9812 17.0527 33.7981 17.2471C33.2636 15.6188 30.7184 10.525 24.679 10.426C22.8627 10.3958 21.3731 10.9544 20.2538 12.0846C17.7477 14.6155 17.8383 19.1949 17.8397 19.2408C17.8462 19.4872 17.6518 19.6922 17.4054 19.6986C17.159 19.7064 16.9542 19.5107 16.9475 19.2642C16.9419 19.0609 16.8485 14.2553 19.6197 11.4564C20.9166 10.1466 22.6239 9.49996 24.6938 9.5338C28.5575 9.59729 31.0445 11.5616 32.4502 13.198C33.9827 14.9816 34.7339 16.949 34.7957 17.6057C34.8419 18.094 34.4914 18.1916 34.4207 18.2062L34.2596 18.2098C32.4765 17.9243 31.3326 18.1226 30.8596 18.7983C29.8418 20.253 31.8123 23.7863 32.6536 25.2952C32.8684 25.6801 33.0233 25.9584 33.0944 26.1301C33.3707 26.8002 33.7312 27.2505 34.0207 27.6125C34.2755 27.9308 34.4962 28.2068 34.5751 28.5307C34.6117 28.595 35.1316 29.3642 38.2169 28.7273C38.9903 28.5679 39.454 28.7041 39.5958 29.1329C39.8746 29.9761 38.31 30.9598 37.4438 31.362C36.6677 31.7228 35.429 31.951 34.3572 31.951ZM33.0437 30.8264C33.1416 30.9251 33.6314 31.0955 34.6455 31.0518C35.5473 31.0132 36.4982 30.8172 37.0688 30.5523C37.7985 30.2133 38.2857 29.8343 38.538 29.5756L38.3982 29.6014C36.4255 30.0086 35.0301 29.9543 34.2509 29.44C34.1952 29.4033 34.1452 29.3653 34.0999 29.3278C34.0154 29.3611 33.9374 29.3829 33.8817 29.3986C33.4398 29.5225 32.9828 29.6509 33.0437 30.8264ZM20.3005 33.3198C19.8104 33.3198 19.2947 33.253 18.768 33.1213C18.2224 32.9848 17.3025 32.5739 17.3164 31.899C17.3324 31.1419 18.4335 30.9148 18.848 30.8295C20.3455 30.521 20.4431 30.3974 20.911 29.803C21.0475 29.6299 21.2173 29.4142 21.4489 29.1558C21.7926 28.7709 22.1682 28.576 22.5654 28.576C22.842 28.576 23.0688 28.6697 23.2188 28.7321C23.6965 28.9301 24.095 29.4089 24.2589 29.9815C24.4069 30.498 24.3361 30.9953 24.0603 31.3816C23.155 32.6494 21.8547 33.3198 20.3005 33.3198ZM18.2805 31.9373C18.4151 32.0414 18.6847 32.1804 18.9848 32.2553C19.441 32.3695 19.8834 32.4273 20.3007 32.4273C21.5722 32.4273 22.5931 31.901 23.3345 30.8628C23.4892 30.6463 23.4428 30.3713 23.4014 30.2267C23.3147 29.9238 23.0993 29.6483 22.8775 29.5563C22.7573 29.5065 22.6574 29.4685 22.5657 29.4685C22.5165 29.4685 22.3665 29.4685 22.1143 29.7507C21.9011 29.9887 21.7476 30.1837 21.6125 30.3554C21.0296 31.0955 20.7625 31.3466 19.0284 31.7038C18.6053 31.7905 18.3882 31.8789 18.2805 31.9373ZM21.7121 29.8788C21.4956 29.8788 21.3054 29.7208 21.2715 29.5001C21.2604 29.426 21.2531 29.3516 21.2492 29.2766C20.1125 29.2554 19.0158 28.7676 18.1832 27.8989C17.1304 26.8005 16.6513 25.2787 16.8689 23.7239C17.1053 22.0354 17.0169 20.545 16.9693 19.7442C16.9562 19.5216 16.9467 19.3607 16.9472 19.2494C16.9481 19.1082 16.9509 18.7337 18.2028 18.0991C18.648 17.8733 19.5408 17.4795 20.5161 17.3786C22.1319 17.2116 23.1969 17.9312 23.5158 19.4052C24.3764 23.3847 23.584 25.1448 23.0054 26.4302C22.8977 26.6696 22.7959 26.8956 22.7145 27.1146L22.6426 27.3076C22.3369 28.1274 22.0726 28.8356 22.1537 29.3645C22.1912 29.6081 22.0239 29.8357 21.7803 29.8732L21.7121 29.8788ZM17.8425 19.3731L17.8599 19.6916C17.9091 20.5234 18.0008 22.0712 17.7525 23.8478C17.5732 25.1302 17.9648 26.3818 18.8273 27.2813C19.5089 27.9923 20.4059 28.3847 21.3278 28.3847H21.3468C21.45 27.9498 21.6214 27.4905 21.806 26.9957L21.8774 26.8039C21.9694 26.5566 22.0771 26.3172 22.1912 26.0638C22.748 24.8265 23.4414 23.2862 22.6429 19.594C22.4848 18.8626 22.1014 18.4394 21.4712 18.2999C20.1768 18.014 18.2478 18.9876 17.8425 19.3731ZM20.536 19.1837C20.5136 19.3414 20.8249 19.7627 21.231 19.8189C21.6363 19.8757 21.9831 19.5462 22.0052 19.3884C22.0273 19.2307 21.7163 19.0567 21.3101 19.0002C20.9043 18.9437 20.5575 19.026 20.536 19.1837ZM21.3241 19.9741L21.2103 19.9663C20.9586 19.9313 20.7041 19.7727 20.5298 19.5417C20.4686 19.4606 20.3687 19.3034 20.3886 19.163C20.4168 18.9571 20.668 18.8338 21.0598 18.8338C21.1474 18.8338 21.2385 18.8402 21.3303 18.8531C21.5445 18.8828 21.7434 18.9446 21.8902 19.0265C22.1447 19.1686 22.1635 19.3272 22.152 19.4091C22.1207 19.6365 21.759 19.9741 21.3241 19.9741ZM20.6839 19.21C20.6965 19.3073 20.9376 19.6284 21.2514 19.6718L21.3244 19.6768C21.6142 19.6768 21.8307 19.4488 21.8561 19.3742C21.8293 19.3233 21.643 19.1968 21.2897 19.1476C21.2114 19.1364 21.1342 19.1311 21.0601 19.1311C20.833 19.1311 20.7124 19.1823 20.6839 19.21ZM32.8798 18.8618C32.9019 19.0195 32.5909 19.4407 32.1851 19.4972C31.7795 19.5537 31.4324 19.2245 31.4101 19.0668C31.3888 18.909 31.6998 18.7348 32.1054 18.6786C32.5109 18.6218 32.8575 18.7043 32.8798 18.8618ZM32.0914 19.5778C31.7009 19.5778 31.3639 19.274 31.3362 19.0769C31.3041 18.8402 31.6937 18.6604 32.0948 18.6047C32.1831 18.5924 32.2707 18.5863 32.3549 18.5863C32.7011 18.5863 32.9305 18.6878 32.9534 18.8517C32.9682 18.9577 32.8868 19.1213 32.7467 19.269C32.6541 19.3661 32.4598 19.5342 32.1949 19.5708L32.0914 19.5778ZM32.3551 18.7351C32.278 18.7351 32.1974 18.7409 32.1157 18.7521C31.7127 18.8084 31.4722 18.97 31.4839 19.0567C31.4973 19.1521 31.7546 19.4293 32.0917 19.4293L32.1747 19.4234C32.3949 19.3929 32.5602 19.2491 32.639 19.1664C32.7629 19.0363 32.8122 18.9138 32.8063 18.8721C32.7985 18.8167 32.6497 18.7351 32.3551 18.7351ZM33.4641 27.921C33.3788 27.921 33.2927 27.8964 33.2163 27.8455C33.0116 27.7084 32.9565 27.4312 33.0938 27.2265C34.0442 25.8071 33.8702 24.3597 33.7021 22.9598C33.6303 22.3635 33.5564 21.7468 33.5754 21.155C33.595 20.5461 33.6725 20.0437 33.7472 19.5579C33.8358 18.9823 33.9197 18.4386 33.8851 17.7931C33.8716 17.5469 34.0604 17.3369 34.3066 17.3235C34.5535 17.3103 34.763 17.4988 34.7762 17.745C34.8159 18.4828 34.7211 19.0981 34.6293 19.6936C34.5586 20.1531 34.4853 20.6283 34.4677 21.1835C34.4506 21.7076 34.5174 22.2642 34.5882 22.8532C34.7672 24.3418 34.97 26.0289 33.8356 27.7229C33.7494 27.8513 33.6082 27.921 33.4641 27.921Z" fill="var(--text)"/>
</g>
<defs>
<clipPath id="clip0_1196_1440">
<rect width="48" height="48" fill="white" transform="translate(0.62207)"/>
</clipPath>
</defs>
</svg>

<svg xmlns="http://www.w3.org/2000/svg" width="49" height="48" fill="none" viewBox="0 0 49 48"><g clip-path="url(#clip0_1196_1440)"><path fill="var(--text)" d="M39.535 0h-29.07A9.465 9.465 0 0 0 1 9.465v29.07A9.465 9.465 0 0 0 10.465 48h29.07A9.465 9.465 0 0 0 49 38.535V9.465A9.465 9.465 0 0 0 39.535 0"/><path fill="var(--background)" d="M32.203 33.316c.22-1.827.154-2.095 1.515-1.8l.345.031c1.047.048 2.416-.168 3.22-.542 1.732-.803 2.759-2.145 1.052-1.792-3.895.803-4.162-.516-4.162-.516 4.112-6.101 5.83-13.847 4.347-15.743-4.047-5.17-11.053-2.726-11.17-2.662l-.037.007c-.77-.16-1.631-.255-2.598-.271-1.763-.03-3.1.462-4.114 1.231 0 0-12.498-5.149-11.916 6.475.123 2.473 3.544 18.711 7.624 13.806a75 75 0 0 1 2.932-3.31 3.78 3.78 0 0 0 2.471.631l.07-.059c-.022.223-.013.44.027.698-1.05 1.175-.742 1.38-2.843 1.813-2.126.438-.877 1.218-.062 1.422.989.248 3.276.598 4.822-1.565l-.062.246c.412.33.385 2.371.443 3.83.058 1.457.156 2.818.453 3.62.298.803.648 2.87 3.41 2.277 2.308-.493 4.072-1.205 4.233-7.827"/><path fill="var(--background)" d="M27.07 42.586c-1.22 0-2.016-.472-2.5-.928-.728-.688-1.018-1.575-1.19-2.104l-.075-.221c-.348-.94-.466-2.292-.536-4.033-.01-.261-.018-.53-.026-.816-.006-.21-.013-.471-.024-.745a5.3 5.3 0 0 1-1.388.438c-.86.147-1.787.1-2.752-.142-.68-.17-1.388-.523-1.792-1.068-1.175 1.03-2.297.89-2.907.686-1.078-.36-2.042-1.37-2.949-3.087-.646-1.224-1.27-2.818-1.856-4.739-1.021-3.345-1.67-6.868-1.728-8.025-.18-3.62.794-6.21 2.897-7.695 3.317-2.344 8.344-.966 10.176-.34 1.231-.742 2.68-1.103 4.317-1.077.879.014 1.716.091 2.493.23.811-.255 2.413-.621 4.247-.598 3.38.04 6.18 1.357 8.097 3.808 1.37 1.749.692 5.42.167 7.454-.739 2.86-2.033 5.902-3.624 8.55.432.003 1.058-.049 1.947-.232 1.755-.363 2.268.578 2.407 1 .559 1.69-1.867 2.967-2.624 3.318-.969.45-2.55.724-3.844.665l-.056-.004-.34-.03-.034.284-.032.277c-.087 3.356-.567 5.481-1.553 6.886-1.034 1.472-2.471 1.884-3.737 2.156a5.7 5.7 0 0 1-1.18.132M24.5 30.372c.789.63.858 1.818.92 4.037q.01.416.024.784c.03.74.1 2.476.372 3.21q.055.154.109.32c.303.928.454 1.393 1.764 1.113 1.1-.236 1.665-.447 2.108-1.077.642-.916 1.002-2.758 1.068-5.475l1.338.032-1.329-.16.04-.33c.127-1.094.219-1.884.95-2.407.586-.419 1.254-.378 1.786-.282-.584-.442-.746-.96-.79-1.173l-.11-.55.313-.465c1.806-2.68 3.295-5.972 4.086-9.035.813-3.147.565-4.818.317-5.134-3.28-4.192-8.97-2.46-9.563-2.265l-.1.055-.504.093-.258-.053c-.711-.148-1.5-.23-2.347-.243-1.33-.023-2.404.292-3.284.96l-.61.462-.709-.291c-1.513-.62-5.96-1.864-8.305-.202-1.303.922-1.896 2.73-1.764 5.372.044.872.636 4.175 1.614 7.378 1.351 4.426 2.58 5.896 3.092 6.067.09.03.322-.15.553-.428a76 76 0 0 1 2.99-3.376l.775-.815.937.622c.378.251.794.393 1.222.42l2.234-1.905-.324 3.303c-.007.074-.01.175.018.362l.098.626-.423.472-.049.055 1.228.566z"/><path fill="var(--background)" d="M38.335 29.213c-3.895.803-4.163-.516-4.163-.516 4.113-6.101 5.832-13.847 4.348-15.743-4.047-5.17-11.053-2.725-11.17-2.662l-.038.007c-.77-.16-1.63-.255-2.598-.27-1.763-.03-3.1.462-4.114 1.23 0 0-12.497-5.148-11.916 6.476.123 2.473 3.544 18.71 7.624 13.806a76 76 0 0 1 2.932-3.31 3.78 3.78 0 0 0 2.47.631l.07-.06c-.021.224-.011.441.029.7-1.052 1.174-.743 1.38-2.844 1.812-2.126.438-.877 1.218-.062 1.422.989.247 3.276.598 4.821-1.566l-.061.247c.412.33.7 2.146.652 3.792s-.08 2.776.244 3.659c.325.883.648 2.868 3.41 2.276 2.308-.494 3.504-1.776 3.67-3.914.119-1.52.386-1.295.403-2.654l.214-.643c.248-2.06.04-2.725 1.462-2.416l.345.03c1.047.047 2.416-.169 3.22-.542 1.732-.803 2.759-2.145 1.052-1.792"/><path fill="var(--text)" d="M27.21 41.762c-2.302 0-3.032-1.824-3.33-2.57-.437-1.092-.531-5.333-.434-8.81a.446.446 0 1 1 .892.025c-.112 4.01.047 7.645.37 8.454.505 1.261 1.27 2.364 3.434 1.9 2.054-.44 2.823-1.218 3.165-3.204.263-1.524.783-5.86.847-6.716a.446.446 0 1 1 .89.067c-.066.89-.584 5.218-.857 6.8-.404 2.346-1.45 3.41-3.858 3.927-.41.087-.78.126-1.119.127m-12.484-8.906c-.22 0-.419-.04-.592-.098-1.495-.499-2.92-2.935-4.234-7.24-1-3.277-1.634-6.698-1.69-7.81-.164-3.295.684-5.627 2.523-6.93 3.638-2.577 9.758-.123 10.017-.017a.446.446 0 0 1-.338.827c-.059-.024-5.927-2.376-9.165-.08-1.572 1.115-2.294 3.186-2.145 6.156.046.937.638 4.275 1.652 7.593 1.173 3.844 2.508 6.27 3.662 6.654.182.06.733.245 1.522-.704a69 69 0 0 1 2.86-3.223.446.446 0 0 1 .644.617 68 68 0 0 0-2.818 3.177c-.693.833-1.357 1.078-1.898 1.078m19.419-3.76a.445.445 0 0 1-.37-.696c4.157-6.169 5.616-13.622 4.366-15.22-1.573-2.01-3.794-3.059-6.601-3.12-2.08-.044-3.732.487-4.002.58l-.068.027a.447.447 0 0 1-.382-.804q.02-.012.12-.05c.459-.167 2.137-.67 4.214-.647 3.107.033 5.674 1.23 7.422 3.465.827 1.057.829 3.492.005 6.68-.84 3.252-2.42 6.746-4.334 9.588a.44.44 0 0 1-.37.196m.212 2.855c-.71 0-1.346-.1-1.727-.328-.392-.235-.466-.554-.476-.723-.107-1.877.929-2.203 1.457-2.352a6 6 0 0 0-.287-.378c-.308-.385-.73-.912-1.054-1.7-.051-.123-.21-.409-.395-.74-1.001-1.796-3.084-5.53-1.746-7.443.619-.886 1.852-1.234 3.67-1.04-.535-1.628-3.08-6.722-9.12-6.821-1.816-.03-3.306.528-4.425 1.659-2.506 2.53-2.416 7.11-2.414 7.156a.446.446 0 1 1-.892.023c-.006-.203-.1-5.009 2.672-7.808 1.297-1.31 3.004-1.956 5.074-1.922 3.864.063 6.35 2.028 7.756 3.664 1.533 1.784 2.284 3.751 2.346 4.408.046.488-.305.586-.375.6l-.161.004c-1.783-.286-2.927-.087-3.4.588-1.018 1.455.952 4.988 1.794 6.497.214.385.37.663.44.835.277.67.637 1.12.927 1.483.255.318.475.594.554.918.037.064.557.833 3.642.196.773-.16 1.237-.023 1.379.406.279.843-1.286 1.827-2.152 2.229-.776.36-2.015.589-3.087.589m-1.313-1.125c.098.1.587.27 1.602.226.901-.039 1.852-.235 2.423-.5.73-.339 1.217-.718 1.469-.976l-.14.025c-1.973.408-3.368.353-4.147-.161a2 2 0 0 1-.151-.112c-.085.033-.163.055-.218.07-.442.125-.9.253-.838 1.428M20.3 33.32c-.49 0-1.006-.067-1.533-.199-.546-.136-1.466-.547-1.452-1.222.016-.757 1.117-.984 1.532-1.07 1.498-.308 1.595-.432 2.063-1.026.136-.173.306-.389.538-.647.344-.385.72-.58 1.116-.58.277 0 .504.094.654.156.477.198.876.677 1.04 1.25.148.516.077 1.013-.199 1.4-.905 1.267-2.205 1.938-3.76 1.938m-2.02-1.383c.134.104.404.243.704.318.456.114.898.172 1.316.172 1.271 0 2.292-.526 3.034-1.564.154-.217.108-.492.066-.636-.086-.303-.302-.579-.523-.67a.9.9 0 0 0-.312-.088c-.05 0-.2 0-.452.282-.213.238-.366.433-.502.604-.582.74-.85.992-2.584 1.349-.423.087-.64.175-.747.233m3.431-2.058a.45.45 0 0 1-.44-.379 2 2 0 0 1-.023-.223c-1.136-.022-2.233-.51-3.066-1.378-1.053-1.099-1.532-2.62-1.314-4.175.236-1.689.148-3.179.1-3.98-.013-.222-.022-.383-.022-.495.001-.14.004-.515 1.256-1.15.445-.226 1.338-.62 2.313-.72 1.616-.167 2.68.552 3 2.026.86 3.98.068 5.74-.51 7.025-.108.24-.21.466-.291.685l-.072.193c-.306.82-.57 1.528-.49 2.057a.446.446 0 0 1-.373.508zm-3.87-10.506.018.319c.05.831.14 2.38-.107 4.156-.18 1.282.212 2.534 1.074 3.433.682.711 1.579 1.104 2.5 1.104h.02c.103-.435.274-.895.459-1.39l.071-.191c.092-.247.2-.487.314-.74.557-1.238 1.25-2.778.452-6.47-.158-.731-.542-1.155-1.172-1.294-1.294-.286-3.223.688-3.628 1.073m2.694-.19c-.022.158.289.58.695.636s.752-.273.774-.43c.022-.158-.289-.332-.695-.389s-.752.026-.774.184m.788.791-.114-.008a1.07 1.07 0 0 1-.68-.424c-.061-.081-.161-.239-.141-.379.028-.206.279-.33.67-.33q.133 0 .271.02c.215.03.413.092.56.173.255.143.273.301.262.383-.031.228-.393.565-.828.565m-.64-.764c.012.097.254.418.567.462l.073.005c.29 0 .507-.228.532-.303-.027-.05-.213-.177-.566-.226a2 2 0 0 0-.23-.017c-.227 0-.348.051-.376.079m12.196-.348c.022.158-.29.579-.695.635-.406.057-.753-.273-.775-.43-.021-.158.29-.332.695-.388.406-.057.753.025.775.183m-.789.716c-.39 0-.727-.304-.755-.501-.032-.237.358-.417.759-.472q.133-.02.26-.019c.346 0 .576.102.598.266.015.106-.066.27-.206.417a.98.98 0 0 1-.552.302zm.264-.843q-.116 0-.24.017c-.402.056-.643.218-.631.305.013.095.27.372.608.372l.083-.006a.83.83 0 0 0 .464-.257c.124-.13.173-.252.167-.294-.008-.055-.156-.137-.45-.137m1.11 9.186a.446.446 0 0 1-.371-.694c.95-1.42.776-2.867.608-4.267-.072-.597-.146-1.213-.127-1.805.02-.609.097-1.111.172-1.597.089-.576.173-1.12.138-1.765a.446.446 0 1 1 .891-.048c.04.738-.055 1.353-.147 1.949-.07.46-.144.934-.161 1.49-.017.524.05 1.08.12 1.67.18 1.488.382 3.175-.752 4.869a.45.45 0 0 1-.372.198"/></g><defs><clipPath id="clip0_1196_1440"><path fill="#fff" d="M.622 0h48v48h-48z"/></clipPath></defs></svg>
